berloni/img/logo.svg

<svg width="96" height="110" viewBox="0 0 96 110" fill="none" xmlns="http://www.w3.org/2000/svg">
  <path
    d="M24.2288 2.14762C24.6421 11.2399 30.6347 27.8303 48.9078 28.0664C62.5462 28.2436 73.5867 16.465 73.5867 2.14762C73.5867 0.346878 73.6458 -0.0368862 73.2915 -1.71954H24.4059C24.0812 -0.0368862 24.1107 -0.597772 24.2288 2.14762Z"
    fill="#EE3425"/>
  <path d="M73.6163 80.5535C73.203 71.4613 67.2104 54.8709 48.9373 54.6347C35.2989 54.4576 24.2583 66.2362 24.2583 80.5535C24.2583 82.3543 24.2288 82.8856 24.5535 84.5683H73.4096C73.7048 82.8856 73.7343 83.2694 73.6163 80.5535Z" fill="#EE3425"/>
  <path
    d="M82.2362 -1.71954V2.14762C82.2362 21.4834 67.3284 37.1292 48.9078 37.1292C28.9225 37.1292 15.5794 21.4539 15.5794 2.14762C15.5794 0.435438 15.5203 -0.0959272 15.727 -1.71954H8.64209V84.5683H15.5794V80.5535C15.5794 61.2177 30.4871 45.572 48.9078 45.572C68.893 45.572 82.2362 61.2472 82.2362 80.5535C82.2362 82.2657 82.1771 82.9447 81.9705 84.5683H89.1439V-1.71954H82.2362Z"
    fill="#EE3425"/>
  <path
    d="M23.107 84.5387H22.0147L21.3063 82.5314C21.2472 82.3542 21.1587 82.2066 21.0406 82.059C20.9225 81.9114 20.8044 81.7934 20.6568 81.6753C20.5092 81.5572 20.3616 81.4982 20.1845 81.4391C20.0074 81.3801 19.8302 81.3506 19.6236 81.3506H17.7638V84.5683H16.7601V77.0406H20.0959C20.3026 77.0406 20.4797 77.0406 20.6863 77.0406C20.893 77.0406 21.0406 77.0701 21.2177 77.0996C21.3948 77.1292 21.5424 77.1882 21.69 77.2472C21.8376 77.3063 21.9852 77.3948 22.1033 77.5129C22.3395 77.7196 22.4871 77.9557 22.6347 78.2509C22.7528 78.5461 22.8118 78.8413 22.8118 79.1365C22.8118 79.4022 22.7823 79.6384 22.6937 79.8745C22.6052 80.1107 22.5166 80.2878 22.369 80.4649C22.2214 80.6421 22.0443 80.7897 21.8376 80.9077C21.631 81.0258 21.3948 81.1144 21.1291 81.1734V81.203C21.6605 81.3801 22.0443 81.8229 22.3395 82.5609L23.107 84.5387ZM17.8229 80.4354H20.0664C20.3616 80.4354 20.6273 80.4059 20.8635 80.3764C21.0996 80.3173 21.2767 80.2583 21.4243 80.1402C21.5719 80.0221 21.6605 79.9041 21.7491 79.7269C21.8081 79.5498 21.8376 79.3432 21.8376 79.107C21.8376 78.6642 21.69 78.3395 21.4243 78.1624C21.1587 77.9557 20.7454 77.8672 20.214 77.8672H17.8229V80.4354Z"
    fill="black"/>
  <path
    d="M13.3063 104.199C13.3063 105.852 12.7749 107.151 11.7417 108.066C10.7085 108.982 9.14394 109.424 7.04799 109.424H0.553528V91.7417H6.90039C7.786 91.7417 8.58305 91.8598 9.29154 92.0665C10 92.2731 10.62 92.5683 11.0923 92.9816C11.5941 93.3653 11.9779 93.8377 12.214 94.3986C12.4797 94.9594 12.5978 95.5794 12.5978 96.2879C12.5978 97.1735 12.3912 97.941 12.0074 98.5609C11.5941 99.2104 11.0037 99.7122 10.1771 100.125C10.7085 100.273 11.1513 100.48 11.5351 100.745C11.9188 101.011 12.2436 101.306 12.5093 101.661C12.7749 102.015 12.9521 102.399 13.0701 102.841C13.2473 103.255 13.3063 103.727 13.3063 104.199ZM3.74172 98.9742H6.78231C7.72696 98.9742 8.40593 98.7971 8.84873 98.4724C9.29154 98.1181 9.5277 97.5572 9.5277 96.7011C9.5277 96.3469 9.46866 96.0222 9.3801 95.727C9.29154 95.4613 9.11442 95.2251 8.87825 95.048C8.64209 94.8709 8.34689 94.7233 7.99264 94.6347C7.6384 94.5462 7.16608 94.4871 6.63471 94.4871H3.74172V98.9742ZM3.74172 106.679H6.90039C7.96312 106.679 8.76017 106.472 9.26202 106.059C9.79338 105.646 10.0295 105.026 10.0295 104.199C10.0295 103.756 9.9705 103.402 9.85242 103.078C9.73434 102.753 9.55722 102.517 9.29154 102.31C9.02585 102.103 8.70113 101.956 8.25833 101.867C7.81552 101.779 7.31368 101.72 6.69375 101.72H3.74172V106.679Z"
    fill="black"/>
  <path d="M28.2731 109.424H15.5203V91.7417H27.9188V94.6347H18.7085V98.9447H27.2989V101.838H18.7085V106.531H28.2731V109.424Z" fill="black"/>
  <path
    d="M44.834 109.424H41.4096L39.9336 105.026C39.8155 104.642 39.6384 104.288 39.4318 103.963C39.2251 103.638 38.9889 103.373 38.7233 103.137C38.4576 102.9 38.1624 102.723 37.8377 102.605C37.5129 102.487 37.1587 102.428 36.7749 102.428H33.6458V109.424H30.4576V91.7417H37.8967C38.5166 91.7417 39.107 91.7712 39.6384 91.8303C40.1698 91.8893 40.6716 91.9779 41.1144 92.1255C41.5572 92.2731 41.9705 92.4797 42.3247 92.7454C42.679 93.0111 42.9742 93.3358 43.2399 93.7786C43.7712 94.6052 44.0369 95.6089 44.0369 96.7897C44.0369 98.0296 43.7122 99.0332 43.0923 99.8008C42.4723 100.568 41.5867 101.1 40.4354 101.365V101.395C41.0849 101.631 41.6163 102.015 42.0295 102.576C42.4428 103.137 42.8266 103.845 43.1513 104.76L44.834 109.424ZM33.6753 99.6532H37.572C38.1329 99.6532 38.6347 99.5941 39.0185 99.5056C39.4318 99.417 39.7565 99.2399 40.0222 99.0332C40.2878 98.8266 40.465 98.5314 40.583 98.2067C40.7011 97.8524 40.7602 97.4687 40.7602 96.9668C40.7602 96.0812 40.524 95.4318 40.0222 95.0185C39.5203 94.6052 38.7823 94.3986 37.8081 94.3986H33.6458V99.6532H33.6753Z"
    fill="black"/>
  <path d="M57.4687 109.424H46.6347V91.7417H49.8229V106.472H57.4687V109.424Z" fill="black"/>
  <path
    d="M66.6495 91.4465C67.8598 91.4465 68.9521 91.6532 69.9262 92.096C70.9004 92.5388 71.7565 93.1587 72.4354 93.9558C73.1439 94.7528 73.6753 95.727 74.0591 96.8487C74.4428 97.9705 74.6199 99.2104 74.6199 100.598C74.6199 101.956 74.4428 103.196 74.0591 104.317C73.6753 105.439 73.1439 106.413 72.465 107.21C71.786 108.007 70.9299 108.627 69.9557 109.07C68.9816 109.513 67.8598 109.72 66.6495 109.72C65.4391 109.72 64.3174 109.513 63.3432 109.07C62.369 108.627 61.5129 108.007 60.8045 107.21C60.096 106.413 59.5646 105.439 59.1809 104.317C58.7971 103.196 58.62 101.956 58.62 100.598C58.62 99.2104 58.7971 97.9705 59.1809 96.8487C59.5646 95.727 60.096 94.7528 60.8045 93.9558C61.5129 93.1587 62.3395 92.5388 63.3432 92.096C64.3174 91.6532 65.4391 91.4465 66.6495 91.4465ZM66.6199 106.856C67.358 106.856 68.0369 106.709 68.5978 106.384C69.1882 106.089 69.6901 105.646 70.0738 105.085C70.4871 104.524 70.7823 103.875 71.0185 103.107C71.2251 102.34 71.3432 101.513 71.3432 100.598C71.3432 99.6827 71.2251 98.8266 71.0185 98.0591C70.8118 97.2915 70.4871 96.6421 70.1033 96.0812C69.69 95.5203 69.2177 95.107 68.6273 94.7823C68.0369 94.4871 67.3875 94.31 66.6495 94.31C65.9115 94.31 65.2325 94.4576 64.6421 94.7528C64.0517 95.048 63.5498 95.4908 63.1366 96.0517C62.7233 96.6126 62.3986 97.262 62.1919 98.0296C61.9853 98.7971 61.8672 99.6532 61.8672 100.568C61.8672 101.483 61.9853 102.31 62.1919 103.078C62.3986 103.845 62.7233 104.495 63.1366 105.055C63.5498 105.616 64.0517 106.03 64.6126 106.354C65.1735 106.679 65.9115 106.856 66.6199 106.856Z"
    fill="black"/>
  <path d="M90.4428 109.424H87.2251L79.7565 96.7011L79.845 102.989V109.424H76.834V91.7417H80.0812L87.5498 104.465L87.4613 98.1772V91.7417H90.4723V109.424H90.4428Z" fill="black"/>
  <path d="M95.9336 109.424H93.7196V91.7417H95.9336V109.424Z" fill="black"/>
</svg>

<svg width="96" height="110" fill="none" xmlns="http://www.w3.org/2000/svg"><path d="M24.229 2.148c.413 9.092 6.406 25.682 24.679 25.918 13.638.178 24.679-11.601 24.679-25.918 0-1.801.059-2.185-.296-3.868H24.407c-.325 1.683-.295 1.122-.177 3.868zM73.616 80.553c-.413-9.092-6.406-25.682-24.679-25.918-13.638-.177-24.679 11.601-24.679 25.919 0 1.8-.03 2.332.296 4.014H73.41c.295-1.682.324-1.299.206-4.014z" fill="#EE3425"/><path d="M82.236-1.72v3.868c0 19.335-14.908 34.981-33.328 34.981-19.986 0-33.329-15.675-33.329-34.981 0-1.713-.059-2.244.148-3.868H8.642v86.288h6.937v-4.014c0-19.336 14.908-34.982 33.329-34.982 19.985 0 33.328 15.675 33.328 34.981 0 1.713-.059 2.392-.266 4.015h7.174V-1.72h-6.908z" fill="#EE3425"/><path d="M23.107 84.539h-1.092l-.709-2.008a1.497 1.497 0 0 0-.265-.472 2.361 2.361 0 0 0-.384-.384 1.422 1.422 0 0 0-.473-.236 1.72 1.72 0 0 0-.56-.088h-1.86v3.217H16.76v-7.527H20.686c.207 0 .355.03.532.059.177.03.324.088.472.147.148.06.295.148.413.266.236.207.384.443.532.738.118.295.177.59.177.885 0 .266-.03.502-.118.739a1.9 1.9 0 0 1-.325.59 1.93 1.93 0 0 1-.531.443 2.52 2.52 0 0 1-.709.265v.03c.531.177.915.62 1.21 1.358l.768 1.978zm-5.284-4.104h2.243c.296 0 .561-.03.797-.059.237-.059.414-.118.561-.236.148-.118.236-.236.325-.413.06-.177.089-.384.089-.62 0-.443-.148-.767-.414-.945-.265-.206-.679-.295-1.21-.295h-2.391v2.568zM13.306 104.199c0 1.653-.531 2.952-1.564 3.867-1.034.916-2.598 1.358-4.694 1.358H.554V91.742H6.9c.886 0 1.683.118 2.392.325.708.206 1.328.501 1.8.915a3.48 3.48 0 0 1 1.122 1.417c.266.56.384 1.18.384 1.889 0 .886-.207 1.653-.59 2.273-.414.65-1.004 1.151-1.83 1.564.53.148.973.355 1.357.62.384.266.709.561.974.916.266.354.443.738.561 1.18.177.414.236.886.236 1.358zm-9.564-5.225h3.04c.945 0 1.624-.177 2.067-.502.443-.354.679-.915.679-1.77a3.37 3.37 0 0 0-.148-.975 1.419 1.419 0 0 0-.502-.679 2.464 2.464 0 0 0-.885-.413 5.778 5.778 0 0 0-1.358-.148H3.742v4.487zm0 7.705H6.9c1.063 0 1.86-.207 2.362-.62.531-.413.768-1.033.768-1.86 0-.443-.06-.797-.178-1.121a1.632 1.632 0 0 0-.56-.768c-.266-.207-.59-.354-1.034-.443a7.87 7.87 0 0 0-1.564-.147H3.742v4.959zM28.273 109.424H15.52V91.742H27.92v2.893h-9.21v4.31h8.59v2.893h-8.59v4.693h9.564v2.893zM44.834 109.424H41.41l-1.476-4.398a4.397 4.397 0 0 0-.502-1.063 3.863 3.863 0 0 0-.709-.826 2.712 2.712 0 0 0-.885-.532 3.09 3.09 0 0 0-1.063-.177h-3.13v6.996h-3.187V91.742h7.439c.62 0 1.21.03 1.741.088.532.06 1.034.148 1.476.296.443.147.857.354 1.21.62.355.265.65.59.916 1.033.531.826.797 1.83.797 3.01 0 1.24-.325 2.244-.945 3.012-.62.767-1.505 1.299-2.657 1.564v.03c.65.236 1.181.62 1.594 1.181.414.561.798 1.269 1.122 2.184l1.683 4.664zm-11.159-9.77h3.897c.56 0 1.063-.06 1.447-.148a2.441 2.441 0 0 0 1.003-.473c.266-.206.443-.502.561-.826.118-.355.177-.738.177-1.24 0-.886-.236-1.535-.738-1.948-.502-.414-1.24-.62-2.214-.62h-4.162v5.254h.03zM57.469 109.424H46.635V91.742h3.188v14.73h7.646v2.952zM66.65 91.447c1.21 0 2.302.206 3.276.649.974.443 1.83 1.063 2.51 1.86.708.797 1.24 1.771 1.623 2.893.384 1.121.56 2.361.56 3.749 0 1.358-.176 2.598-.56 3.719-.384 1.122-.915 2.096-1.594 2.893-.679.797-1.535 1.417-2.51 1.86-.973.443-2.095.65-3.305.65s-2.333-.207-3.307-.65a7.542 7.542 0 0 1-2.539-1.86c-.708-.797-1.24-1.771-1.623-2.893-.384-1.121-.561-2.361-.561-3.719 0-1.388.177-2.627.56-3.75.385-1.121.916-2.095 1.624-2.892a7.258 7.258 0 0 1 2.54-1.86c.973-.443 2.095-.65 3.306-.65zm-.03 15.409c.738 0 1.417-.147 1.978-.472a3.895 3.895 0 0 0 1.476-1.299c.413-.561.708-1.21.945-1.978a9.56 9.56 0 0 0 .324-2.509c0-.915-.118-1.771-.325-2.539a6.433 6.433 0 0 0-.915-1.978 4.433 4.433 0 0 0-1.476-1.299 4.345 4.345 0 0 0-1.977-.472c-.739 0-1.418.148-2.008.443-.59.295-1.092.738-1.505 1.299a5.858 5.858 0 0 0-.945 1.978 9.792 9.792 0 0 0-.325 2.538c0 .915.118 1.742.325 2.51a5.85 5.85 0 0 0 .945 1.977c.413.561.915.975 1.476 1.299.56.325 1.299.502 2.007.502zM90.443 109.424h-3.218l-7.468-12.723.088 6.288v6.435h-3.011V91.742h3.247l7.469 12.723-.089-6.288v-6.435h3.011v17.682h-.03zM95.934 109.424H93.72V91.742h2.214v17.682z" fill="#000"/></svg>
